X:1
T:Title
%%score { ( 1 3 4 ) | ( 2 5 ) }
L:1/8
Q:1/4=100
M:4/4
K:Db
V:1 treble nm="Grand Piano"
V:3 treble 
V:4 treble 
V:2 bass 
V:5 bass 
V:1
 [Fd]2 A>G F2 E2 | A6 A2 | B2 [Gc][Fd] [EG]2 [DF]2 | [CE]6 z2 | [DF]2 [_F=G]>[EA] [Ed]2 [Ec]2 | %5
w: Hubert~P.~Main * * * *|||||
 e2 d[Ec] B2 e2 | c2 d2 z4 |[M:3/4] [Fd]6 |[M:1/4] DF |[M:4/4] z4 z2 .B2 | [Fd]6 dc | z4 .B2 z2 | %12
w: |||||||
[M:3/4] e6 |[M:1/4] A2 |[M:4/4] [Fd]2 cB A2 [=DB]2 | AG .[A,CF]2 [A,DF]2 [A,DA]2 | %16
w: ||||
 [DB]c d2 [Gd]2 [Gc]2 | [Fd]6 z2 |] %18
w: ||
V:2
 [D,A,]2 [F,D]>[G,B,D] [A,D]2 [G,A,C]2 | [F,A,D]6 [F,A,D]2 | [G,D]2 [E,A,][D,A,] [C,A,]2 [D,A,]2 | %3
 [A,,A,]6 z2 | [D,A,]2 [D,B,]>[C,A,] [B,,=G,]2 [A,,A,]2 | [=G,,B,E=G]3 [A,,A,] [E,=G,E]2 [G,B,E]2 | %6
 [A,E][G,E] [F,D]2 [E,B,]2 [A,,A,]2 |[M:3/4] [D,A,]6 |[M:1/4] D,F, | %9
[M:4/4] A,2 [G,CE]2 [F,A,D]2 [E,A,]2 | [D,A,]6 [F,D]2 | [G,DG]2 [F,D]2 [E,A,]2 [D,A,]2 | %12
[M:3/4] [A,CA]6 |[M:1/4] [F,C]2 |[M:4/4] [B,,B,]2 [E,=G,D]2 [F,A,C]2 [B,,F,]2 | %15
 [E,B,]2 z E D,2 F,2 | z E [F,A,D]2 [E,B,]2 [A,,A,]2 | [D,A,]6 z2 |] %18
V:3
 x8 | x8 | x8 | x8 | x8 | x8 | z2 z A [Gd]2 [Gc]2 |[M:3/4] x6 |[M:1/4] x2 | %9
[M:4/4] A2 A2 A2 G-[Gc] | z4 z2 A2 | B2 A2 G-[Gc] [Fd]2 |[M:3/4] x6 |[M:1/4] x2 |[M:4/4] x8 | x8 | %16
 x8 | x8 |] %18
V:4
 x8 | x8 | x8 | x8 | x8 | x8 | z .A3 z4 |[M:3/4] x6 |[M:1/4] x2 |[M:4/4] x8 | x8 | x8 |[M:3/4] x6 | %13
[M:1/4] x2 |[M:4/4] x8 | x8 | x8 | x8 |] %18
V:5
 x8 | x8 | x8 | x8 | x8 | x8 | x8 |[M:3/4] x6 |[M:1/4] x2 |[M:4/4] x8 | x8 | x8 |[M:3/4] x6 | %13
[M:1/4] x2 |[M:4/4] x8 | z2 A,,2 z4 | G,2 z2 z4 | x8 |] %18

